packages/dnb-eufemia/assets/icons/dog.svg

<svg width="16" height="16" viewBox="0 0 16 16" fill="none" xmlns="http://www.w3.org/2000/svg">
<path d="M4.96558 2.26673C5.03182 2.49075 5.03846 2.73523 4.96558 2.98302C4.59893 4.2297 4.10094 5.43426 3.47992 6.57659C3.14005 7.22161 2.1818 7.23318 1.82633 6.59656C1.20788 5.50295 0.615122 3.95054 1.31879 2.78202C1.72602 2.03133 2.45484 1.47079 3.28693 1.26831C4.02463 1.10209 4.76591 1.59146 4.96558 2.26673ZM4.96558 2.26673C5.40716 1.92332 5.82913 1.57567 6.34892 1.34986C7.38754 0.898675 8.59781 0.883146 9.64775 1.30754C10.1791 1.52233 10.6174 1.8543 11.0539 2.21496M11.0539 2.21496C10.9721 2.45865 10.9581 2.72441 11.0342 2.98302C11.4008 4.2297 11.8988 5.43426 12.5198 6.57659C12.8529 7.20864 13.8162 7.23633 14.1734 6.59656C14.7919 5.50295 15.3846 3.95054 14.681 2.78202C14.2056 1.90541 13.0592 0.98002 12.0022 1.2909C11.5554 1.42231 11.1986 1.78415 11.0539 2.21496ZM3.19506 10C3.5763 11.698 4.31229 13.207 5.45282 14.1128C6.94228 15.2957 9.15585 15.2957 10.6453 14.1128C11.7858 13.207 12.5218 11.698 12.9031 10M9.45891 10.79C9.45891 11.3071 8.8277 11.7263 8.04907 11.7263C7.27043 11.7263 6.63922 11.3071 6.63922 10.79C6.63922 10.2729 7.27043 9.85369 8.04907 9.85369C8.8277 9.85369 9.45891 10.2729 9.45891 10.79Z" stroke="black" stroke-width="1.5" stroke-linecap="round" stroke-linejoin="round"/>
<path d="M6.66671 6.66667C6.66671 7.03486 6.36823 7.33333 6.00004 7.33333C5.63185 7.33333 5.33337 7.03486 5.33337 6.66667C5.33337 6.29848 5.63185 6 6.00004 6C6.36823 6 6.66671 6.29848 6.66671 6.66667Z" fill="black"/>
<path d="M10.6667 6.66667C10.6667 7.03486 10.3682 7.33333 10 7.33333C9.63185 7.33333 9.33337 7.03486 9.33337 6.66667C9.33337 6.29848 9.63185 6 10 6C10.3682 6 10.6667 6.29848 10.6667 6.66667Z" fill="black"/>
</svg>

<svg width="16" height="16" viewBox="0 0 16 16" fill="none" xmlns="http://www.w3.org/2000/svg"><path d="M4.966 2.267c.066.224.073.468 0 .716A18.384 18.384 0 0 1 3.48 6.577c-.34.645-1.298.656-1.654.02C1.208 5.503.616 3.95 1.32 2.782a3.093 3.093 0 0 1 1.968-1.514c.738-.166 1.479.323 1.679.999Zm0 0c.441-.344.863-.691 1.383-.917a4.307 4.307 0 0 1 3.299-.042c.531.214.97.546 1.406.907m0 0c-.082.244-.096.51-.02.768a18.388 18.388 0 0 0 1.486 3.594c.333.632 1.296.66 1.654.02.618-1.094 1.21-2.646.507-3.815-.475-.877-1.622-1.802-2.679-1.491a1.453 1.453 0 0 0-.948.924ZM3.195 10c.381 1.698 1.117 3.207 2.258 4.113 1.49 1.183 3.703 1.183 5.192 0 1.14-.906 1.877-2.415 2.258-4.113M5.985 6.664h.023m3.977 0h.023m-.549 4.126c0 .517-.631.936-1.41.936-.779 0-1.41-.419-1.41-.936 0-.517.631-.936 1.41-.936.779 0 1.41.419 1.41.936Z" stroke="#000" stroke-width="1.5" stroke-linecap="round" stroke-linejoin="round"/></svg>
